src/assets/images/workers-ai/openai.svg

<svg xmlns="http://www.w3.org/2000/svg" width="128" height="128" fill="none" viewBox="0 0 128 128"><g clip-path="url(#clip0_2138_504)"><g clip-path="url(#clip1_2138_504)"><path fill="#000" d="M118.824 52.388a31.9 31.9 0 0 0-2.74-26.192 32.25 32.25 0 0 0-34.736-15.472A31.9 31.9 0 0 0 57.296 0C43.28-.032 30.844 8.992 26.532 22.328A31.9 31.9 0 0 0 5.208 37.796C-1.828 49.924-.224 65.212 9.176 75.612a31.9 31.9 0 0 0 2.74 26.192 32.25 32.25 0 0 0 34.736 15.472 31.88 31.88 0 0 0 24.052 10.72c14.024.036 26.464-8.996 30.776-22.344a31.9 31.9 0 0 0 21.324-15.468 32.26 32.26 0 0 0-3.976-37.804zm-48.112 67.244a23.9 23.9 0 0 1-15.356-5.552c.196-.104.536-.292.756-.428L81.6 98.932a4.14 4.14 0 0 0 2.096-3.628V59.372l10.772 6.22a.38.38 0 0 1 .208.296v29.756c-.016 13.232-10.732 23.96-23.964 23.988M19.176 97.62a23.88 23.88 0 0 1-2.86-16.072c.188.112.52.316.756.452L42.56 96.72a4.15 4.15 0 0 0 4.188 0l31.116-17.968v12.44a.4.4 0 0 1-.152.332L51.948 106.4c-11.476 6.608-26.132 2.68-32.768-8.78zm-6.708-55.636a23.9 23.9 0 0 1 12.484-10.516c0 .22-.012.608-.012.88v29.444a4.15 4.15 0 0 0 2.092 3.624L58.148 83.38 47.376 89.6a.38.38 0 0 1-.364.032L21.244 74.744c-11.452-6.632-15.38-21.284-8.78-32.756zm88.504 20.596L69.856 44.612l10.772-6.216a.38.38 0 0 1 .364-.032L106.76 53.24c11.472 6.628 15.404 21.304 8.776 32.776a23.98 23.98 0 0 1-12.48 10.512V66.204a4.14 4.14 0 0 0-2.08-3.624zm10.72-16.136c-.188-.116-.52-.316-.756-.452l-25.488-14.72a4.15 4.15 0 0 0-4.188 0L50.144 49.24V36.8a.4.4 0 0 1 .152-.332L76.06 21.604c11.476-6.62 26.148-2.68 32.764 8.8a23.98 23.98 0 0 1 2.86 16.04zM44.288 68.616l-10.776-6.22a.38.38 0 0 1-.208-.296V32.344C33.312 19.096 44.06 8.36 57.308 8.368a23.98 23.98 0 0 1 15.336 5.552c-.196.104-.532.292-.756.428L46.4 29.068a4.14 4.14 0 0 0-2.096 3.624l-.016 35.916zM50.14 56 64 47.996l13.86 8V72L64 80l-13.86-8z"/></g></g><defs><clipPath id="clip0_2138_504"><path fill="#fff" d="M0 0h128v128H0z"/></clipPath><clipPath id="clip1_2138_504"><path fill="#fff" d="M0 0h128v128H0z"/></clipPath></defs></svg>

<svg width="128" height="128" viewBox="0 0 128 128" fill="none" xmlns="http://www.w3.org/2000/svg">
<g clip-path="url(#clip0_2138_504)">
<g clip-path="url(#clip1_2138_504)">
<path d="M118.824 52.388C121.728 43.672 120.728 34.124 116.084 26.196C109.1 14.036 95.06 7.78001 81.348 10.724C75.248 3.85201 66.484 -0.0559861 57.296 1.3859e-05C43.28 -0.0319861 30.844 8.99201 26.532 22.328C17.528 24.172 9.75599 29.808 5.20799 37.796C-1.82801 49.924 -0.224006 65.212 9.17599 75.612C6.27199 84.328 7.27199 93.876 11.916 101.804C18.9 113.964 32.94 120.22 46.652 117.276C52.748 124.148 61.516 128.056 70.704 127.996C84.728 128.032 97.168 119 101.48 105.652C110.484 103.808 118.256 98.172 122.804 90.184C129.832 78.056 128.224 62.78 118.828 52.38L118.824 52.388ZM70.712 119.632C65.1 119.64 59.664 117.676 55.356 114.08C55.552 113.976 55.892 113.788 56.112 113.652L81.6 98.932C82.904 98.192 83.704 96.804 83.696 95.304V59.372L94.468 65.592C94.584 65.648 94.66 65.76 94.676 65.888V95.644C94.66 108.876 83.944 119.604 70.712 119.632ZM19.176 97.62C16.364 92.764 15.352 87.072 16.316 81.548C16.504 81.66 16.836 81.864 17.072 82L42.56 96.72C43.852 97.476 45.452 97.476 46.748 96.72L77.864 78.752V91.192C77.872 91.32 77.812 91.444 77.712 91.524L51.948 106.4C40.472 113.008 25.816 109.08 19.18 97.62H19.176ZM12.468 41.984C15.268 37.12 19.688 33.4 24.952 31.468C24.952 31.688 24.94 32.076 24.94 32.348V61.792C24.932 63.288 25.732 64.676 27.032 65.416L58.148 83.38L47.376 89.6C47.268 89.672 47.132 89.684 47.012 89.632L21.244 74.744C9.79199 68.112 5.86399 53.46 12.464 41.988L12.468 41.984ZM100.972 62.58L69.856 44.612L80.628 38.396C80.736 38.324 80.872 38.312 80.992 38.364L106.76 53.24C118.232 59.868 122.164 74.544 115.536 86.016C112.732 90.872 108.316 94.592 103.056 96.528V66.204C103.068 64.708 102.272 63.324 100.976 62.58H100.972ZM111.692 46.444C111.504 46.328 111.172 46.128 110.936 45.992L85.448 31.272C84.156 30.516 82.556 30.516 81.26 31.272L50.144 49.24V36.8C50.136 36.672 50.196 36.548 50.296 36.468L76.06 21.604C87.536 14.984 102.208 18.924 108.824 30.404C111.62 35.252 112.632 40.928 111.684 46.444H111.692ZM44.288 68.616L33.512 62.396C33.396 62.34 33.32 62.228 33.304 62.1V32.344C33.312 19.096 44.06 8.36001 57.308 8.36801C62.912 8.36801 68.336 10.336 72.644 13.92C72.448 14.024 72.112 14.212 71.888 14.348L46.4 29.068C45.096 29.808 44.296 31.192 44.304 32.692L44.288 68.608V68.616ZM50.14 56L64 47.996L77.86 55.996V72L64 80L50.14 72V56Z" fill="black"/>
</g>
</g>
<defs>
<clipPath id="clip0_2138_504">
<rect width="128" height="128" fill="white"/>
</clipPath>
<clipPath id="clip1_2138_504">
<rect width="128" height="128" fill="white"/>
</clipPath>
</defs>
</svg>
